app/assets/images/icons/icon-arrows.svg

<svg width="585" height="682" fill="none" xmlns="http://www.w3.org/2000/svg"><path opacity=".02" d="M584.625 397.74v113.479l-97.375 56.927-97.375 56.927-48.688 28.463L292.5 682l-48.688-28.464-48.687-28.463-97.375-56.927L0 511.219V397.74l97.375-56.553v113.48l97.375 56.927 48.688 28.463 48.687 28.464 48.688-28.464 48.687-28.463 97.375-56.927V340.813l97.75 56.927zm-.375-227.334l-97.375-56.927L389.5 56.552l-48.687-28.088L292.125 0l-48.687 28.463-48.688 28.464-97.375 56.552L0 170.406v113.48l97.375-56.553 97.375-56.927 48.688-28.089v283.886l48.687 28.464 48.688-28.464v-284.26l48.687 28.463 97.375 56.927 97.375 56.927V170.406z" fill="#fff"/></svg>

<svg width="585" height="682" viewBox="0 0 585 682" fill="none" xmlns="http://www.w3.org/2000/svg">
<path opacity="0.02" d="M584.625 397.74V511.219L487.25 568.146L389.875 625.073L341.187 653.536L292.5 682L243.812 653.536L195.125 625.073L97.7496 568.146L0 511.219V397.74L97.3751 341.187V454.667L194.75 511.594L243.438 540.057L292.125 568.521L340.813 540.057L389.5 511.594L486.875 454.667V340.813L584.625 397.74ZM584.25 170.406L486.875 113.479L389.5 56.5524L340.813 28.4635L292.125 0L243.438 28.4635L194.75 56.927L97.3751 113.479L0 170.406V283.886L97.3751 227.333L194.75 170.406L243.438 142.317V426.203L292.125 454.667L340.813 426.203V141.943L389.5 170.406L486.875 227.333L584.25 284.26V170.406Z" fill="white"/>
</svg>
